!!!COM: Ungor, Osman Zeki
!!!CDT: 1880-1958
!!!OTL: National Anthem, Turkey - Istiklal Marsi (The March of Independence)
!!!ENC: Davis, Matthew J.
!!Vocal Line Only
**kern
*clefG2
*k[b-e-a-d-]
*f:
*M4/4
=1-
1r
=2
2r
4r
4c
==!|:3
4f
4g
4a-
8.en
16g
=4
[2f
8f]
8r
4f
=5
4b-
4cc
8.dd-
16cc
8.an
16cc
=6
[2b-
8b-]
8r
6cc
6bn
6cc
=7
4g
[4g
8.g]
16b-
8.a-
16en
=8
8.f
16g
8.a-
16b-
8.cc
16dd-
8.ee-
16ff
=9
4ee-
6e-
6dn
6e-
4cc
4b-
=10
[2a-
8a-]
8r
6c
6Bn
6c
=11
4g
4c
8.cc
16b-
6a-
6g
6a-
=12
4f
[4ff
8.ff]
8ee-
8.dd-
16cc
=13
8.b-
16a-
8.g
16f
4cc
4c
=14
!First Ending
[2f
8f]
8r
4c
==:|!
15
!Second Ending
[2f
8f]
8r
4r
==|!
*-
